X: 24
T:Swaggering Boney, Longborough
M:6/8
L:1/8
A:Longborough
P:A(AB3)2(AC3)2A
K:F
P:A
|:c|AGF ABc|ded d2d|f>ef dgf|ede f2:|
P:B
f|gec gec|gec c2A|B>cd ded|BGA B3 |
ABc F3 |Bcd G3 |A>Bc dgf|ede f2||
P:C
f|gec gec|gec c2A|B>cd ded|BGA B3 |
(2AB c3|F3  F3 |\
(2Bc d3|G3  G3 |A>Bc dgf|ede f2||
